X:1
T:Shame and Scandal
M:4/4
L:1/8
K:C
 G|e-e d c2 GG G|f-f e d3 G2|d-d c B2- GG G| e2 dc z GG| G| ee dd cc de|\
 ff e d4 g| gg g g2 gg g| GA B c4| d6 d2| e6 z2| d2 d d2 ef d| e2 d c- c4|\
 d4- d z d2| e6 z2| d2 d d2 ef d|G-A B c4||
